X:1
T:Title
%%score { ( 1 3 ) | ( 2 4 ) }
L:1/8
M:4/4
K:Ab
V:1 treble nm="Grand Piano"
V:3 treble 
V:2 bass 
V:4 bass 
V:1
 z4 z2[Q:1/4=100] [CE]>[CA] | [Ec]2 [Ec]>[=D_c] [E=c]2 [CA]>[CA] | %2
 [FA]2 [EG]>[DF] [CE]2 [CE]>[CE] | E2 F>G A2 B[Ec] | [=Dc]2 [DB]>[DA] [_DB]2 [CE]>[CA] | %5
 [Ec]2 [Ec]>[=D_c] [E=c]2 [CA]>[CA] |[M:3/4] [FA]2 [EG]>[DF] [CE]2 |[M:1/4] [CE]>[CE] | %8
[M:4/4] E2 F>G A2 [Ee]>[Fd] | c2 c>B [CA]2 z2 | z4 [Gd]4 | c>c (3c_c=c e4 | %12
 [Af]2 [Af]>[Af] [Ae]2 [Ec]>[EA] | [=DB]2 [DB]>[Dc] [EB]4 | [Ec]>[Ec] (3[Ec][=D_c][E=c] [CA]4 | %15
 [FA]>[FA] (3[FA][=EG][FA] F4 | E2 [Ee]>[Fd] [Ec]2 [DB]2 |[M:3/4] [CA]6 |] %18
V:2
 z4 z2 [A,,A,]>[A,,E,] | [A,,A,]2 [A,,A,]>[A,,A,] [A,,A,]2 [A,,E,]>[A,,A,] | %2
 [D,A,]2 [D,A,]>[D,A,] [A,,A,]2 [A,,A,]>[A,,A,] | %3
 [E,G,D]2 [E,A,D]>[E,B,D] [F,A,C]2 [E,G,E][A,,A,] | %4
 [B,,A,]2 [B,,A,]>[B,,A,] [E,G,]2 [A,,A,]>[A,,E,] | %5
 [A,,A,]2 [A,,A,]>[A,,A,] [A,,A,]2 [A,,E,]>[A,,A,] |[M:3/4] [D,A,]2 [D,A,]>[D,A,] [A,,A,]2 | %7
[M:1/4] [A,,A,]>[A,,A,] |[M:4/4] [E,G,D]2 [E,A,D]>[E,B,D] [F,A,C]2 [C,A,]>[D,A,] | %9
 [E,A,E]2 [E,G,E]>[E,D] [A,,E,]2 z2 | [E,D]>[E,D] (3[E,D][E,C][E,D] B,2 z2 | %11
 [A,EA]>[A,EA] (3[A,EA][A,=DA][A,EA] [A,CA]4 | [D,D]2 [D,D]>[D,D] [A,,C]2 [A,,A,]>[C,A,] | %13
 [B,,A,]2 [B,,A,]>[B,,A,] [E,G,]4 | [A,,A,]>[A,,A,] (3[A,,A,][A,,A,][A,,A,] [A,,A,]4 | %15
 [D,A,]>[D,D] (3[D,D][D,D][D,D] [D,A,]4 | [C,A,]2 [C,A,]>[D,A,] [E,A,]2 [E,G,]2 | %17
[M:3/4] [A,,A,]6 |] %18
V:3
 x8 | x8 | x8 | x8 | x8 | x8 |[M:3/4] x6 |[M:1/4] x2 |[M:4/4] x8 | x8 | %10
 [GB]>[GB] (3[GB][_G=A][=GB] z2 C2 | x8 | x8 | x8 | x8 | x8 | x8 |[M:3/4] x6 |] %18
V:4
 x8 | x8 | x8 | x8 | x8 | x8 |[M:3/4] x6 |[M:1/4] x2 |[M:4/4] x8 | x8 | z4 E,4 | x8 | x8 | x8 | %14
 x8 | x8 | x8 |[M:3/4] x6 |] %18

